X:8
T:Decorations on two voices
T:(look also the 'd:' lines)
%%infoline 1
C:Composer
O:Origin
R:Rhythm
M:C
%%staves (1 2)
K:C
V:1
  ~c.dJeNf cdef|aabc' gabc'|!coda!cdef gfec||
d: * * * * HRTu|!mf!       |!sfz!  *** ***!D.S.!
V:2
   CDEF    CDEF|ffga   efga|C  D  EF   [EG]FEC||
d: ~.JN    HRTu|~.JN   HRTu|!5!!4!M*   !5! M
d:             |           |*  P  !3!  !4!
